X:1
T:When Evil People Sin
T:Tune: Joseph Parry, 1841-1903 Text under copyright; for copyrighted material see Psalter Hymnal 37
T:SMD DINBYCH www.hymnary.org/text/when_evil_people_sin
T:When Evil People Sin
T:This music is in the public domain. You may freely use this score for personal and congregational worship. If you reproduce the score, please credit Hymnary.org as the source. 
T:This music is in the public domain. You may freely use this score for personal and congregational worship. If you reproduce the score, please credit Hymnary.org as the source. 
Z:This music is in the public domain. You may freely use this score for personal and congregational worship. If you reproduce the score, please credit Hymnary.org as the source.
%%score ( 1 2 ) ( 3 4 )
L:1/8
M:4/4
K:Eb
V:1 treble nm="SOPRANO ALTO" snm="S. A."
V:2 treble 
V:3 bass nm="TENOR BASS" snm="T. B."
V:4 bass 
V:1
 C2 | G2 G2 G2 FE | D6 D2 | EF G2 F2 B2 | G6 | G2 | c2 =B2 c2 G2 | A2 GF G2 C2 | F2 E2 D2 D2 | C6 | %10
 C2 | C2 D2 E2 F2 | G6 G2 | E2 F2 G2 A2 | B6 |1 G2 | ed c=B c2 G2 | F2 G2 A2 GF | G2 E2 D2 D2 | %19
 C6 x2 |] %20
V:2
 C2 | E2 F2 E2 DC | =B,6 B,2 | CD E2 E2 D2 | E6 | F2 | E2 F2 G2 E2 | F2 D2 E2 C2 | C=B, C2 C2 B,2 | %9
 G,6 | C2 | C2 C=B, C2 C2 | =B,6 D2 | E2 ED E2 E2 | D6 |1 GF | E2 F2 G2 E2 | C2 C2 C2 D2 | %18
 E2 C2 C2 =B,2 | G,6 x2 |] %20
V:3
 C2 | C2 B,2 C2 A,2 | G,6 G,2 | G,2 B,2 C2 B,2 | B,6 | =B,2 | G,2 G,2 G,2 C2 | C2 B,2 B,2 A,G, | %8
 F,2 G,2 A,2 G,F, | E,6 | G,2 | A,G, F,2 G,2 F,2 | D,6 =B,2 | CB, A,2 B,2 A,2 | F,6 |1 G,2 | %16
 G,2 G,A, G,2 CB, | A,2 G,2 F,2 B,2 | B,2 C2 A,2 G,F, | E,6 x2 |] %20
V:4
 C,2 | C,2 D,2 E,2 F,2 | G,6 G,,2 | C,2 B,,2 A,,2 B,,2 | E,6 | D,2 | C,2 D,2 E,2 C,2 | %7
 F,2 B,,2 E,2 F,E, | D,2 C,2 F,,2 G,,2 | C,6 | E,2 | F,E, D,2 C,B,, A,,2 | G,,6 G,2 | %13
 A,G, F,2 E,D, C,2 | B,,6 |1 E,D, | C,2 D,2 E,2 C,2 | F,2 =E,2 F,2 B,,2 | E,2 A,,G,, F,,2 G,,2 | %19
 C,6 x2 |] %20

